X:1
T:Title
%%score 1 ( 2 3 )
L:1/8
Q:1/4=110
M:4/4
K:Eb
V:1 treble nm="Grand Piano, Soprano"
V:2 bass nm="Choir Pad, Earl�s Court, CMD"
V:3 bass 
V:1
 EF [EG]2- [EG][EG] [EG]2 | [FA]2 [GB]2- [GB][GB] [GB]2 | [EG]2 [DF]2- [DF][C=E] [DF]2 | %3
 [FA]2 [EG]6 | EF [EG]2- [EG][EG] [EG]2 | [FA]2 [GB]2- [GB][GB] [GB]2 | %6
 [EG]2 [DF]2- [DF][EG] [FA]2 | [B,D]2 [B,E]6 | [GB]2 [Ac]2- [Ac][Ac] [Ac]2 | %9
 [Ae]2 [GB]2- [GB][GB] [GB]2 | [EG]2 [DF]2- [DF][EG][FA][Ac] | [GB][FA] [EG]6 | %12
 [GB]2 [Ac]2- [Ac][Ac] [Ac]2 | [Ae]2 [GB]2- [GB][GB] [GB]2 | [EG]2 [DF]2- [DF][EG] [FA]2 | %15
 [B,D]2 [B,E]6- | [B,E]2 z2 z4 |] %17
V:2
 G,A, [E,B,]2- [E,B,][E,B,] [E,B,]2 | [E,B,]2 [E,E]2- [E,E][E,E] [E,E]2 | %2
w: By~Charles~Edward~Pollock,~1883 * * * * *||
 [E,B,]2 [B,,B,]2- [B,,B,][B,,B,] [B,,B,]2 | [B,,B,]2 [E,B,]6 | %4
w: ||
 G,A, [E,B,]2- [E,B,][E,B,] [E,B,]2 | [E,B,]2 [E,E]2- [E,E][E,E] [E,E]2 | %6
w: ||
 [E,B,]2 [B,,B,]2- [B,,B,][B,,B,] [B,,B,]2 | [B,,A,]2 [E,G,]6 | [E,E]2 [A,E]2- [A,E][A,E] [A,E]2 | %9
w: |||
 [A,E]2 [E,E]2- [E,E][E,E] [E,E]2 | [E,B,]2 [B,,B,]4- [B,,B,][B,,B,] | [B,,B,][B,,B,] [E,B,]6 | %12
w: |||
 [E,E]2 [A,E]2- [A,E][A,E] [A,E]2 | [A,E]2 [E,E]2- [E,E][E,E] [E,E]2 | %14
w: ||
 [E,B,]2 [B,,B,]2- [B,,B,][B,,B,] [B,,B,]2 | [B,,B,]2 [E,G,]6- | [E,G,]2 z2 z4 |] %17
w: |||
V:3
 E,2 z2 z4 | x8 | x8 | x8 | E,2 z2 z4 | x8 | x8 | x8 | x8 | x8 | x8 | x8 | x8 | x8 | x8 | x8 | %16
 x8 |] %17

